X: 1782
T: Over The Garden Wall
B: australian traditional tunes wiki
M:4/4
L:1/8
R: Schottische
Q: 1/4=100
K:G
V:1 
D2||"G"G2G>AB4|"D7"c>B A>Bc4|"G"d2d>cB2"D7"A2|"G"G6D2|G2G>AB4|"D7"c>B A>Bc4|"G"d2d>cB2"D7"A2|"G"G6G2|
"G"d>e d>c B2-B>B|"D7"c>d c>B A2-A>G|F>E F>Gd2-d>D|"G"G2G>AB4|"D7"c>B A>Bc4|"G"d2d>cB2"D7"A2|"G"G6||
% abcbook-tune_id 6342d53af0df9fce53ca0cfe


% abcbook-boost 0
% abcbook-tablature 
% abcbook-transpose 
% abcbook-lastupdated 1665324383597
% abcbook-soundfonts 
% abcbook-repeats 1
% NFF Book 2014

